src/apps/scalable/preferences-system-network-wakeonlan.svg

<svg width="64" height="64" version="1.1" xmlns="http://www.w3.org/2000/svg" xmlns:xlink="http://www.w3.org/1999/xlink">
 <defs>
  <filter id="filter946" x="-.03888" y="-.03888" width="1.0778" height="1.0778" color-interpolation-filters="sRGB">
   <feGaussianBlur stdDeviation="0.972"/>
  </filter>
  <linearGradient id="d-3" x1="2" x2="2" y1="30" y2="2" gradientTransform="matrix(2.1429 0 0 2.1429 -2.2857 -2.2857)" gradientUnits="userSpaceOnUse">
   <stop stop-color="#a5a5a5" offset="0"/>
   <stop stop-color="#f5f2f5" offset="1"/>
  </linearGradient>
 </defs>
 <linearGradient id="f" x1="6.099" x2="6.099" y1="24.845" y2="8.511" gradientTransform="matrix(2.2857 0 0 2.2857 -4.5714 -4.5714)" gradientUnits="userSpaceOnUse">
  <stop stop-color="#ffd42a" offset="0"/>
  <stop stop-color="#ffdf62" offset="1"/>
 </linearGradient>
 <circle cx="32" cy="32" r="30" fill="#000000" filter="url(#filter946)" opacity=".25" style="paint-order:normal"/>
 <rect x="2" y="2" width="60" height="60" rx="30" fill="#4f575f" stroke-width="2.1428"/>
 <path d="m32 2a30 30 0 0 0-27.984 19.286h0.12643l6.4286-2.1429 4.2857 4.2857v-4.2857l4.2857-2.1429v-2.1429l4.2857-2.1429 4.2857-4.2857v2.1429l2.1429-2.1429-2.1429-2.1429h4.2857v2.1429l4.2857-2.1429-2.1429-2.1429v-2.0357a30 30 0 0 0-2.1429-0.10714zm22.232 9.9107-0.80357 0.80357v2.1429h3.1479a30 30 0 0 0-2.3443-2.9464zm2.82 3.6086-7.9093 7.9093-2.1429 6.4286v2.1429l4.2857 4.2857 4.2857 2.1429 5.9807-1.4743a30 30 0 0 0 0.44786-4.9543 30 30 0 0 0-4.9479-16.481zm-50.766 10.052-2.1429 2.1429h-1.7957c-0.10714 0.72857-0.18857 1.4593-0.24214 2.1921v0.0043l4.1807 2.0893 2.1429 2.1429 4.2857 2.1429 2.1429 2.1429-2.1429 2.1429v4.2857l2.1429 4.2857 4.2857 4.2857v5.6336a30 30 0 0 0 12.857 2.9379c0.36429-0.0064 0.72857-0.01929 1.0929-0.03857l1.05-2.1043v-2.1429l4.2857-2.1429 2.1429-2.1429v-4.2857l2.1429-2.1429v-2.1429l-2.1429-2.1429-6.4286-2.1429-4.2857-4.2857h-2.1429l-2.1429-2.1429-6.4286-2.1429-4.2857 2.1429h-4.2857v-4.2857h-2.1429v-4.2857z" fill="url(#d-3)" stroke-width="2.1428"/>
 <circle cx="32" cy="32" r="16" fill="#4f575f" fill-rule="evenodd" stroke-width="2.2857"/>
 <path d="m29.714 16v13.714h4.5714v-13.714zm-2.2857 0.67429a16 16 0 0 0-11.429 15.326 16 16 0 0 0 16 16 16 16 0 0 0 16-16 16 16 0 0 0-11.429-15.317v2.4069a13.714 13.714 0 0 1 9.1429 12.91 13.714 13.714 0 0 1-13.714 13.714 13.714 13.714 0 0 1-13.714-13.714 13.714 13.714 0 0 1 9.1429-12.914z" fill="url(#f)" fill-rule="evenodd" stroke-width="2.2857"/>
</svg>

<svg width="64" height="64" xmlns="http://www.w3.org/2000/svg"><defs><linearGradient id="b" x1="2" x2="2" y1="30" y2="2" gradientTransform="translate(-2.286 -2.286) scale(2.1429)" gradientUnits="userSpaceOnUse"><stop stop-color="#a5a5a5" offset="0"/><stop stop-color="#f5f2f5" offset="1"/></linearGradient><filter id="a" x="-.039" y="-.039" width="1.078" height="1.078" color-interpolation-filters="sRGB"><feGaussianBlur stdDeviation=".972"/></filter></defs><linearGradient id="c" x1="6.099" x2="6.099" y1="24.845" y2="8.511" gradientTransform="translate(-4.571 -4.571) scale(2.2857)" gradientUnits="userSpaceOnUse"><stop stop-color="#ffd42a" offset="0"/><stop stop-color="#ffdf62" offset="1"/></linearGradient><circle cx="32" cy="32" r="30" filter="url(#a)" opacity=".25" style="paint-order:normal"/><rect x="2" y="2" width="60" height="60" rx="30" fill="#4f575f"/><path d="M32 2A30 30 0 0 0 4.016 21.286h.126l6.429-2.143 4.286 4.286v-4.286L19.142 17v-2.143l4.286-2.143 4.286-4.285v2.143l2.143-2.143-2.143-2.143H32v2.143l4.285-2.143-2.143-2.143V2.107A30 30 0 0 0 32 2zm22.232 9.91-.804.804v2.143h3.148a30 30 0 0 0-2.344-2.946zm2.82 3.61-7.91 7.909L47 29.857V32l4.286 4.286 4.285 2.143 5.98-1.475A30 30 0 0 0 62 32a30 30 0 0 0-4.948-16.48zM6.286 25.57l-2.143 2.143H2.347c-.107.729-.188 1.46-.242 2.192v.005L6.286 32l2.143 2.143 4.286 2.143 2.142 2.143-2.142 2.142v4.286l2.142 4.286 4.286 4.286v5.633A30 30 0 0 0 32 62c.364-.006.729-.02 1.093-.038l1.05-2.105v-2.143l4.286-2.143 2.143-2.142v-4.286L42.715 47v-2.143l-2.143-2.143-6.429-2.143-4.286-4.285h-2.143l-2.142-2.143L19.143 32l-4.286 2.143h-4.285v-4.286H8.429V25.57z" fill="url(#b)"/><circle cx="32" cy="32" r="16" fill="#4f575f" fill-rule="evenodd"/><path d="M29.714 16v13.714h4.571V16zm-2.286.674A16 16 0 0 0 16 32a16 16 0 0 0 16 16 16 16 0 0 0 16-16A16 16 0 0 0 36.57 16.683v2.407A13.714 13.714 0 0 1 45.713 32 13.714 13.714 0 0 1 32 45.714 13.714 13.714 0 0 1 18.285 32a13.714 13.714 0 0 1 9.143-12.914z" fill="url(#c)" fill-rule="evenodd"/></svg>
